X:1
T:Sleep Soond ida Moarnin
R:Reel
M:4/4
L:1/8
K:Amix
BG|"Am"A a2^g a2ef|"G"gedB GABG|"Am"A a2^ga2ef|"G"gedB "Am"A2:|
AB|"Am"=cAeA =cAeA|"G/Em"B=cdB G2AB|"Am"=cAeA =cAeA|"G"BAGB "Am"A2 AB|
"Am"=cAeA cAeA|"G"B=cdB G3B|"Am"AB=cd efga|"G"gedB "Am"A2|]
